X:2296
T:Isabel foalsey 
C:Traditional
O:Isle of Man
B:Mona Melodies No 3 
Z:Clague collection
B:Kiaull Vannin #296 
M:4/4 
L:1/8 
Q:80 
K:D 
A>A|d2 c>d B2 c>d|e>c A>A A2 A>G|F2 A>A B2 c>d|e>c A>A A2 A>A| 
B>A B>c d2 e>f|A>B A>G {G}F2 D>F|Ad dB A2 FA|A>F DD D2|| 

